X: 120
T: The Miller O' Hirn
C: by J. Scott Skinner
C: arr. T. Traub 6-5-1996
R: Strathspey
M: 4/4
K: D
L: 1/8
|: A, \
| "D"D>E F<B A<F "Bm"D2 | "Em"B,>E "G"G/F/E/D/ "A" C<A,A,>C \
| "D"D>E F<B A<F "Bm"D2 | "G"B,>D"A"C<A "D"F<D D :|
B \
| "D"A>G"D7"F<d "G"B<G G2 | "E"B>A"E7"^G<e "A"c<A A>B \
| "D"A>G"D7"F<d "G"B>A"Em"G<B | "A"c>B A<a "D"f<d d>B |
| "D"A>G"D7"F<d "G"B<G G2 | "E"B>A"E7"^G<e "A"c<A A>c \
| "D"(3dAB (3cde (3fde (3fga |[1 "G"(3bag "D"(3fed "A"(3cBA "A7"(3GFE :|[2 "G"(3bag "A"(3fge "D"f<d d |]

%%sep 1 1 500

